d1 $ ghost $ s "bd bd . sn" #pF "overdrive" (10*rand)

d1 $ whenmod 5 3 (ghost.slow 2.(#room (fast (1+ irand 8) $ "0.02 0.5"))) $ sometimes (#room 0.25) $ every 4 (rev) $ s "{bd*4,[~ hh]*4,[~ sn]*2}" #gain 1 #room 0.02



d1 $ s "bd*32"

:t fix

setcps 1

hush
